packages/core/src/svgs/tokens/branded/EJS.svg

<svg width="24" height="24" viewBox="0 0 24 24" fill="none" xmlns="http://www.w3.org/2000/svg">
<path d="M16.5167 7.4778L11.6444 8.81113L12.1167 9.2889L9.24448 12.1611C9.17225 12.2337 9.08642 12.2914 8.99192 12.3308C8.89741 12.3702 8.79607 12.3907 8.69366 12.3909C8.59127 12.3912 8.4898 12.3712 8.3951 12.3323C8.3004 12.2933 8.21429 12.2362 8.1417 12.164C8.0691 12.0916 8.01144 12.0058 7.97202 11.9113C7.9326 11.8168 7.91217 11.7154 7.91192 11.613C7.91166 11.5106 7.93157 11.4093 7.97052 11.3145C8.00947 11.2199 8.06669 11.1337 8.13892 11.0611L13.6556 5.54446C12.24 5.18112 10.7442 5.29304 9.3983 5.86303C8.05249 6.43301 6.93127 7.42946 6.20719 8.69902C5.48312 9.96855 5.19632 11.4409 5.3909 12.8895C5.5855 14.338 6.25071 15.6824 7.28417 16.7159C8.31764 17.7493 9.66213 18.4146 11.1106 18.6091C12.5591 18.8037 14.0314 18.517 15.301 17.7929C16.5706 17.0688 17.5671 15.9476 18.1371 14.6018C18.707 13.256 18.8189 11.7602 18.4556 10.3445L12.9389 15.8611C12.7923 16.007 12.5937 16.0886 12.3869 16.0881C12.1802 16.0876 11.982 16.005 11.8362 15.8584C11.6903 15.7118 11.6087 15.5132 11.6092 15.3064C11.6097 15.0996 11.6923 14.9015 11.8389 14.7555L14.7111 11.8833L15.2334 12.4L16.5167 7.4778Z" fill="url(#paint0_linear_364_9522)"/>
<path d="M6.16636 15.2333L9.24414 12.1611C9.17191 12.2337 9.08608 12.2914 8.99158 12.3308C8.89707 12.3702 8.79573 12.3907 8.69332 12.3909C8.48651 12.3915 8.28797 12.3098 8.14136 12.164C8.06876 12.0916 8.0111 12.0058 7.97168 11.9113C7.93226 11.8168 7.91183 11.7154 7.91157 11.613C7.91106 11.4063 7.99271 11.2077 8.13858 11.0611L5.53857 13.6556C5.68302 14.2 5.88857 14.7333 6.16636 15.2333ZM11.833 14.7611L8.76635 17.8333C9.26636 18.1111 9.79972 18.3167 10.3442 18.4611L13.0385 15.7612L12.9386 15.8611C12.7927 16.0077 12.5945 16.0904 12.3878 16.091C12.181 16.0915 11.9824 16.0098 11.8358 15.8638C11.6892 15.718 11.6065 15.5199 11.606 15.313C11.6055 15.1063 11.6871 14.9077 11.833 14.7611Z" fill="#EA3D72"/>
<path d="M12.1941 14.4001L8.76635 17.8333L9.10524 18.0056L11.6275 15.4834C11.5719 15.2333 11.6385 14.9555 11.8385 14.7611L12.1941 14.4001ZM5.65524 14.0555L7.93303 11.7889C7.87747 11.5333 7.94414 11.2555 8.13858 11.0611L5.53857 13.6556L5.65524 14.0611V14.0555Z" fill="#730D2B"/>
<path fill-rule="evenodd" clip-rule="evenodd" d="M12 21.4444C14.5048 21.4444 16.9071 20.4494 18.6782 18.6782C20.4494 16.9071 21.4444 14.5048 21.4444 12C21.4444 9.49513 20.4494 7.09295 18.6782 5.32177C16.9071 3.5506 14.5048 2.55557 12 2.55557C9.49515 2.55557 7.09295 3.5506 5.32177 5.32177C3.55059 7.09295 2.55555 9.49513 2.55555 12C2.55555 14.5048 3.55059 16.9071 5.32177 18.6782C7.09295 20.4494 9.49515 21.4444 12 21.4444ZM12 22C13.3133 22 14.6136 21.7414 15.8268 21.2388C17.0401 20.7362 18.1425 19.9997 19.071 19.0711C19.9997 18.1425 20.7362 17.0401 21.2388 15.8269C21.7414 14.6136 22 13.3132 22 12C22 10.6868 21.7414 9.38643 21.2388 8.17317C20.7362 6.95992 19.9997 5.85752 19.071 4.92894C18.1425 4.00035 17.0401 3.26376 15.8268 2.76121C14.6136 2.25866 13.3133 2 12 2C9.34784 2 6.80429 3.05358 4.92894 4.92894C3.05358 6.80431 2 9.34784 2 12C2 14.6522 3.05358 17.1957 4.92894 19.0711C6.80429 20.9465 9.34784 22 12 22Z" fill="url(#paint1_linear_364_9522)"/>
<defs>
<linearGradient id="paint0_linear_364_9522" x1="18.7777" y1="5.2223" x2="4.92776" y2="19.0723" gradientUnits="userSpaceOnUse">
<stop stop-color="#8F3EDA"/>
<stop offset="1" stop-color="#E73E73"/>
</linearGradient>
<linearGradient id="paint1_linear_364_9522" x1="22" y1="12" x2="2.5889" y2="12" gradientUnits="userSpaceOnUse">
<stop stop-color="#864BD0"/>
<stop offset="1" stop-color="#E54077"/>
</linearGradient>
</defs>
</svg>

<svg xmlns="http://www.w3.org/2000/svg" width="24" height="24" fill="none" viewBox="0 0 24 24">
    <path fill="url(#EJS__a)" d="M16.517 7.478 11.644 8.81l.473.478-2.873 2.872a.78.78 0 1 1-1.105-1.1l5.517-5.517a6.667 6.667 0 1 0 4.8 4.8l-5.517 5.517a.78.78 0 0 1-1.1-1.106l2.872-2.872.522.517z"/>
    <path fill="#EA3D72" d="m6.166 15.233 3.078-3.072a.78.78 0 1 1-1.105-1.1l-2.6 2.595c.144.544.35 1.077.627 1.577m5.667-.472-3.067 3.072c.5.278 1.034.484 1.578.628l2.695-2.7-.1.1a.78.78 0 0 1-1.106-1.1"/>
    <path fill="#730D2B" d="m12.194 14.4-3.428 3.433.34.173 2.521-2.523a.77.77 0 0 1 .211-.722zm-6.539-.344 2.278-2.267a.79.79 0 0 1 .206-.728l-2.6 2.595.116.405z"/>
    <path fill="url(#EJS__b)" fill-rule="evenodd" d="M12 21.444a9.444 9.444 0 1 0 0-18.888 9.444 9.444 0 0 0 0 18.888M12 22a9.998 9.998 0 0 0 9.239-13.827A10 10 0 1 0 12 22" clip-rule="evenodd"/>
    <defs>
        <linearGradient id="EJS__a" x1="18.778" x2="4.928" y1="5.222" y2="19.072" gradientUnits="userSpaceOnUse">
            <stop stop-color="#8F3EDA"/>
            <stop offset="1" stop-color="#E73E73"/>
        </linearGradient>
        <linearGradient id="EJS__b" x1="22" x2="2.589" y1="12" y2="12" gradientUnits="userSpaceOnUse">
            <stop stop-color="#864BD0"/>
            <stop offset="1" stop-color="#E54077"/>
        </linearGradient>
    </defs>
</svg>
